packages/icons/src/gcr-deploy-light.svg

<svg width="32" height="32" viewBox="0 0 32 32" fill="none" xmlns="http://www.w3.org/2000/svg">
<path fill-rule="evenodd" clip-rule="evenodd" d="M6.56963 3.78524C6.70771 3.54609 7.0135 3.46416 7.25265 3.60223L12.0646 6.3804C12.3037 6.51848 12.3857 6.82427 12.2476 7.06342C12.1095 7.30256 11.8037 7.3845 11.5646 7.24643L6.75265 4.46825C6.5135 4.33018 6.43156 4.02439 6.56963 3.78524ZM3.69894 6.38067C3.45979 6.2426 3.15399 6.32454 3.01592 6.56368C2.87785 6.80283 2.95979 7.10862 3.19894 7.24669L8.01088 10.0249C8.25003 10.1629 8.55582 10.081 8.69389 9.84186C8.83196 9.60271 8.75003 9.29692 8.51088 9.15885L3.69894 6.38067ZM17.2935 6.89059C17.1387 6.80078 16.9477 6.80056 16.7927 6.89004L9.79249 10.9305C9.63776 11.0198 9.54244 11.1849 9.54244 11.3635L9.54246 19.1476C9.54246 19.3256 9.63712 19.4902 9.79099 19.5797L17.1201 23.8446C17.2752 23.9348 17.4668 23.935 17.6221 23.8451L24.6537 19.7748C24.8081 19.6854 24.9032 19.5205 24.9032 19.3421V11.5934C24.9032 11.4151 24.8083 11.2503 24.6541 11.1609L17.2935 6.89059ZM10.5425 18.86L10.5424 12.2302L16.9234 15.9196L16.8776 22.5464L10.5425 18.86ZM17.8776 22.5418L17.9234 15.9218L23.9032 12.4605V19.0538L17.8776 22.5418ZM17.4253 15.0547L23.406 11.5929L17.042 7.90076L11.042 11.3639L17.4253 15.0547ZM3.69894 12.4253C3.45979 12.2873 3.15399 12.3692 3.01592 12.6084C2.87785 12.8475 2.95979 13.1533 3.19894 13.2914L8.01088 16.0695C8.25003 16.2076 8.55582 16.1257 8.69389 15.8865C8.83196 15.6474 8.75003 15.3416 8.51088 15.2035L3.69894 12.4253Z" fill="white"/>
<g clip-path="url(#clip0_3965_2110)">
<path d="M24.2312 21.55C23.8875 21.55 23.5609 21.7563 23.389 22.0485L21.1375 25.9844C20.9656 26.2938 20.9656 26.6547 21.1375 26.9641L23.389 30.9172C23.5609 31.2266 23.8875 31.4329 24.2312 31.4329H28.7515C29.1125 31.4157 29.4218 31.2266 29.5937 30.9172L31.8453 26.9813C31.9484 26.8438 32 26.6719 32 26.5C32 26.3282 31.9484 26.1563 31.8625 26.0016L29.6109 22.0657C29.439 21.7563 29.1125 21.5672 28.7687 21.5672H24.2312V21.55Z" fill="white"/>
<path d="M31.1578 28.2188L29.6109 30.9172C29.4391 31.2266 29.1125 31.4328 28.7688 31.4328H27.05L24.5234 28.9062L25.2625 26.5172L24.5234 24.0938L25.2797 24.6094L26.3109 25.6406L25.8297 24.0938L29.4047 26.5L31.1578 28.2188Z" fill="#D7DFED"/>
<path d="M24.5234 24.1108L25.2797 24.6265L25.8812 26.5515L25.2969 28.3905L24.5234 28.9062L25.2625 26.5171L24.5234 24.1108ZM26.4656 24.953L26.8438 26.1562H28.2531L26.4656 24.953ZM29.4219 26.5171L25.8297 28.9062L26.5688 26.5171L25.8297 24.1108L29.4219 26.5171Z" fill="black" fill-opacity="0.07"/>
</g>
<defs>
<clipPath id="clip0_3965_2110">
<rect width="11" height="11" fill="white" transform="translate(21 21)"/>
</clipPath>
</defs>
</svg>

<svg viewBox="0 0 32 32" fill="none" xmlns="http://www.w3.org/2000/svg"><path fill-rule="evenodd" clip-rule="evenodd" d="M6.57 3.785a.5.5 0 0 1 .683-.183l4.812 2.778a.5.5 0 0 1-.5.866L6.753 4.468a.5.5 0 0 1-.183-.683ZM3.699 6.381a.5.5 0 0 0-.5.866l4.812 2.778a.5.5 0 0 0 .5-.866L3.699 6.38Zm13.595.51a.5.5 0 0 0-.501-.001l-7 4.04a.5.5 0 0 0-.25.434v7.784a.5.5 0 0 0 .248.432l7.33 4.265a.5.5 0 0 0 .501 0l7.032-4.07a.5.5 0 0 0 .25-.433v-7.749a.5.5 0 0 0-.25-.432l-7.36-4.27ZM10.542 18.86v-6.63l6.381 3.69-.045 6.626-6.335-3.686Zm7.336 3.682.045-6.62 5.98-3.462v6.594l-6.025 3.488Zm-.453-7.487 5.981-3.462L17.042 7.9l-6 3.463 6.383 3.69ZM3.7 12.425a.5.5 0 0 0-.5.866L8.01 16.07a.5.5 0 1 0 .5-.867l-4.812-2.778Z" fill="#fff"/><g clip-path="url(#a)"><path d="M24.231 21.55c-.344 0-.67.206-.842.498l-2.252 3.936a.995.995 0 0 0 0 .98l2.252 3.953c.172.31.498.516.842.516h4.52a1 1 0 0 0 .843-.516l2.251-3.936A.804.804 0 0 0 32 26.5c0-.172-.052-.344-.137-.498l-2.252-3.936a.969.969 0 0 0-.842-.499H24.23v-.017Z" fill="#fff"/><path d="m31.158 28.219-1.547 2.698a.985.985 0 0 1-.842.516H27.05l-2.527-2.527.74-2.389-.74-2.423.757.515 1.03 1.032-.48-1.547 3.575 2.406 1.753 1.719Z" fill="#D7DFED"/><path d="m24.523 24.11.757.517.601 1.925-.584 1.838-.774.516.74-2.389-.74-2.406Zm1.943.843.378 1.203h1.41l-1.788-1.203Zm2.956 1.564-3.592 2.39.739-2.39-.74-2.406 3.593 2.406Z" fill="#000" fill-opacity=".07"/></g><defs><clipPath id="a"><path fill="#fff" transform="translate(21 21)" d="M0 0h11v11H0z"/></clipPath></defs></svg>
